X: 100381
M: C
L: 1/8
K: D
uF |\
f |\
afdf Afdf | bgeb gbeb | afdf Afdb | ageg fddf |\
afdf Afdf | bgeb gbeb | afge fdec | Adeg fd"^Fine."d |]


